X:1
T:Abendlied
T:Johann Anton André
T:Abendlied
T:CPDL   —   Creative Commons Attribution Non Commercial 3.0
T:CPDL   —   Creative Commons Attribution Non Commercial 3.0
C:Johann Anton André
Z:CPDL   —   Creative Commons Attribution Non Commercial 3.0
%%score [ ( 1 2 ) ( 3 4 ) 5 ]
L:1/8
Q:1/4=80
M:4/4
K:Eb
V:1 treble nm="Sopran\nAlt"
V:2 treble 
V:3 treble-8 nm="Tenor"
V:4 treble-8 
V:5 bass nm="Bass"
V:1
!p!"^Feierlich, langsam"!<(! B6 B2!<)! |!>(! e6!>)! z2 |!f! f3 z d3 z | !fermata!e4 z2 | %4
w: 1\-3. Dankt dem|Herrn!|dankt dem|Herrn!|
w: ||||
w: ||||
"^Soli"!p! B2 | G2 A2 B2 c2 | B3!<(! B e2 B2!<)! |!>(! (B2 A2) (A2 G2)!>)! | (G4 F2) | %9
w: 1. Die|A- bend- son- ne|winkt der mü- den|Er- * de _|Ruh, _|
w: 2. In|küh- len Lüf- ten|stär- ket sich der|Blu- * men _|Flor, _|
w: 3. In|un- sern Hüt- ten|war- tet un- ser|sü- * ße _|Ruh; _|
"^Tutti"!p! B2 | G2 A2 B2 c2 | B3!<(! B e2 B2!<)! |!>(! (B2 A2) (A2 G2)!>)! | (G4 F2) | %14
w: die|A- bend- son- ne|winkt der mü- den|Er- * de _|Ruh; _|
w: in|küh- len Lüf- ten|stär- ket sich der|Blu- * men _|Flor; _|
w: in|un- sern Hüt- ten|war- tet un- ser|sü- * ße _|Ruh; _|
"^Soli"!p! F>G | A2!<(! G2 A2 B2!<)! |!>(! c4!>)! B2!<(! A>!<)!G |!>(! F2 A2!>)! G2 F2 | G4 | %19
w: und der|gan- zen Schöp- fung|Won- ne deckt ein|hei- lig Dun- kel|zu;|
w: aus den|Fel- dern, aus den|Trif- ten steigt ein|Bal- sam- hauch em-|por;|
w: O, für|das auch, was wir|lit- ten tön' ihm|un- ser Lob- lied|zu!|
"^Tutti"!p! F3 G | A2!<(! G2 A2 B2!<)! |!>(! c4!>)! B2!<(! A>!<)!G |!>(! F2!>)! A2 G2 F2 | G4 | %24
w: und der|gan- zen Schöp- fung|Won- ne deckt ein|hei- lig Dun- kel|zu,|
w: aus den|Fel- dern, aus den|Trif- ten steigt ein|Bal- sam- hauch em-|por,|
w: o, für|das auch, was wir|lit- ten tön' ihm|un- ser Lob- lied|zu,|
!p!"^Soli"!<(! G3 =A!<)! | B2 G2 A2 F2 | G4!mf!"^Tutti"!<(! e3 f!<)! |!f! g2 e2 f2 d2 | e4 z4 |] %29
w: deckt ein|hei- lig Dun- kel|zu, deckt ein|hei- lig Dun- kel|zu.|
w: steigt ein|Bal- sam- hauch em-|por, steigt ein|Bal- sam- hauch em-|por.|
w: tön' ihm|un- ser Lob- lied|zu, tön' ihm|un- ser Lob- lied|zu.|
V:2
 G6 F2 | G6 x2 | F3 x A3 x | G4 x2 | G2 | E2 F2 G2 A2 | G3 G G2 G2 | (G2 F2) (F2 E2) | (E4 D2) | %9
 D2 | E2 F2 G2 A2 | G3 G G2 G2 | (G2 F2) (F2 E2) | (E4 D2) | D>E | F2 =E2 F2 G2 | A4 G2 E>E | %17
 E2 E2 E2 D2 | E4 | D3 E | F2 =E2 F2 G2 | A4 G2 E>E | E2 E2 E2 D2 | E4 | G3 ^F | G2 E2 F2 D2 | %26
 E4 G3 =A | B2 G2 _A2 A2 | G4 x4 |] %29
V:3
!p!!<(! B6 f2!<)! |!>(! e6!>)! z2 |!f! c3 z B3 z | !fermata!B4 z2 |!p! e2 | e2 e2 e2 e2 | %6
w: 1\-3. Dankt dem|Herrn!|dankt dem|Herrn!|1. Die|A- bend- son- ne|
w: ||||2. In|küh- len Lüf- ten|
w: ||||3. In|un- sern Hüt- ten|
 e3!<(! e e2 e2!<)! |!>(! d4 e4!>)! | B6 |!p! B2 | e2 e2 e2 e2 | e3!<(! e B2 B2!<)! | %12
w: winkt der mü- den|Er- de|Ruh,|die|A- bend- son- ne|winkt der mü- den|
w: stär- ket sich der|Blu- men|Flor,|in|küh- len Lüf- ten|stär- ket sich der|
w: war- tet un- ser|sü- ße|Ruh;|in|un- sern Hüt- ten|war- tet un- ser|
!>(! B4 B4!>)! | B6 | z2 | z8 | z8 | z8 | z4 |!p! B3 B | B2!<(! B2 A2 G2!<)! | %21
w: Er- de|Ruh;||||||und der|gan- zen Schöp- fung|
w: Blu- men|Flor;||||||aus den|Fel- dern, aus den|
w: sü- ße|Ruh;||||||o, für|das auch, was wir|
!>(! F4!>)! G2!<(! A>!<)!B |!>(! c2!>)! A2 B2 B2 | B4 |!p!!<(! e3 e!<)! | e2 B2 B2 B2 | %26
w: Won- ne deckt ein|hei- lig Dun- kel|zu,|deckt ein|hei- lig Dun- kel|
w: Trif- ten steigt ein|Bal- sam- hauch em-|por;|steigt ein|Bal- sam- hauch em-|
w: lit- ten tön' ihm|un- ser Lob- lied|zu!|tön' ihm|un- ser Lob- lied|
 B4!mf!!<(! e3 e!<)! |!f! e2 e2 d2 B2 | B4 z4 |] %29
w: zu, deckt ein|hei- lig Dun- kel|zu.|
w: por, steigt ein|Bal- sam- hauch em-|por.|
w: zu, tön' ihm|un- ser Lob- lied|zu.|
V:4
 x8 | x8 | A3 x x3 x | x6 | x2 | x8 | x8 | x8 | x6 | x2 | x8 | x8 | x8 | x6 | x2 | x8 | x8 | x8 | %18
 x4 | x4 | x8 | x8 | x8 | x4 | x4 | x8 | x8 | x8 | x8 |] %29
V:5
!p!!<(! E,6 D,2!<)! |!>(! C,6!>)! z2 |!f! A,,3 z B,,3 z | !fermata!E,4 z2 | z2 | z8 | z8 | z8 | %8
w: ||||||||
w: ||||||||
w: ||||||||
 z6 |!p! B,2 | E,2 E,2 E,2 E,2 | E,3!<(! E, E,2 E,2!<)! |!>(! D,4 E,4!>)! | B,,6 |!p! B,,>B,, | %15
w: ||||||und der|
w: ||||||aus den|
w: ||||||O, für|
 B,,2!<(! B,,2 B,,2 B,,2!<)! |!>(! D,4!>)! E,2!<(! C,>!<)!B,, |!>(! A,,2 C,2!>)! B,,2 B,,2 | E,4 | %19
w: gan- zen Schöp- fung|Won- ne deckt ein|hei- lig Dun- kel|zu;|
w: Fel- dern, aus den|Trif- ten steigt ein|Bal- sam- hauch em-|por;|
w: das auch, was wir|lit- ten tön' ihm|un- ser Lob- lied|zu!|
!p! B,,3 B,, | B,,2!<(! B,,2 B,,2 B,,2!<)! |!>(! D,4!>)! E,2!<(! C,>!<)!B,, | %22
w: |||
w: |||
w: |||
!>(! A,,2!>)! C,2 B,,2 B,,2 | E,4 |!p!!<(! E,3 C,!<)! | B,,2 B,,2 B,,2 B,,2 | %26
w: ||||
w: ||||
w: ||||
 E,4!mf!!<(! C,3 C,!<)! |!f! B,,2 B,,2 B,,2 B,,2 | E,4 z4 |] %29
w: |||
w: |||
w: |||

